X:213
T:Polska efter Nils Bernhard Ljunggren
R:sl\"angpolska
H:F\"orsta delen jfr #72, andra delen jfr #214
A:Sm{\aa}land
B:SvL Sml 228, efter Nils Bernhard Ljunggren, Markaryd
Z:id:hn-sp-213
M:3/4
L:1/16
K:D
A4 G2FG A4 | A2Bc dcdA GFED | A4 G2FG A4 | Adcd e2c2 d4 :|
|: ABcd e2e2 f2f2 | g2g2 f2f2 e2e2 | ABcd e2ee f2ff | g2gg f2ff e4 |
a4 faaf [d4f4] | [g4B4] egec A2A2 | ABcd efge fafd | egec d8 :|
<end>
<start>
